X: 8015
T:Waltz fr Dalarna (old )
R:Waltz
O:Sweden
M:3/4
A:Dalarna
K:Em
E2G2 A2|B4 B2|Bdc2 A2|B4 B2|\
Bdc2 A2|B4 G2|G2FD FD|E6::
E2GE GA|B2AG E2|E2GE GA|B2AG E2|\
E2GE GA|B2AG E2|G2FD FD|E6:|
